X:0711271
T:[ID 7-43]
T:Bezeichnung standardisiert: Polonaise
T:Polonoise
C:Urheber unbekannt
C:Datum in der hier transkribierten schriftlichen Quelle: 1776 - 1791
O:Deutschland; Westfalen; Dinker
S:"Tanzsammlung Dahlhoff" Staatsbibliothek zu Berlin, Musiksammlung, Mus. ms. 40182, Buch 07, 127/1, PDF Nr: 854
S:Scan online: http://resolver.staatsbibliothek-berlin.de/SBB0000969000000854
F:http://simonwascher.info/TradArchiv/Dahlhoff/ file-version 2017-11-21
Z:Erfassung in Capella Richmud Rollenbeck, Konversion nach MusicXML Joergen Lang, Konversion nach abc und abc Lektorat Simon Wascher
L:1/16
M:3/4
K:D
d4a4gfed | cdecA4A4 | B2G2 B2gf edcB | A2F2 A2fe dcBA | G3E g3e f3d | cdecd4D4 ::
a4e4dcBA | ^GABGE4E4 | .e2a2 .d2a2 .c2a2 | BcBAB4A4 | A4a4gfed | A2gff4e4 | A4a4gfed | A2gff4e4 | B2G2 B2gf edcB | A2F2 A2fe dcBA | G3E g3e f3d | cdecd4D4 H:|

